X:10
T:Storhurven
R:polska K1
S:efter Spak Olof Svensson "Spaken"
A:S\"arna, Dalarna
Z:hn-k1-10
M:3/4
K:Ddor
E/E/|EF DE ^C/A,/C/D/|EF DE ^C/A,/C/D/|EF DE ^CD|D2 E3 E/E/|
EF DE ^C/A,/C/D/|EF DE ^C/A,/C/D/|EF DE ^CD|1 D2 D3:|2 D2 A4||
|:Ad/^c/ de fa|Sge/g/ a>e fa|ge fd e^c|de ^cd/c/ A2-|
Ad/^c/ de fa|Sge/g/ a>e fa|ge fg e/^c/c|1 d2 e4:|2 d2 A3||
<end>
<start>
